X: 281
T: Turkish March
B: C. & S. Thompson, "The Compleat Tutor for the Fife" c.1760 p.28 #1
S: http://imslp.org/wiki/The_Compleat_Tutor_for_the_Fife_(Anonymous)
Z: 2014 John Chambers <jc:trillian.mit.edu>
M: 2/4
L: 1/16
K: G
% - - - - - - - - - - - - - - - - - - - - - - - - -
G2 |\
dcde d2c2 | BABc B2A2 | G2AB c2(3(Bcd) | TA6 G2 |\
dcde d2c2 | BABc B2g2 | f2ed e2d^c | d6 :|
|: d2 |\
g2d2 B2AG | e2(3(efg) d4 | c2ed c2(3(Bcd) | A4 D4 |\
GFGA BABc | d2ef g2c2 | BdcB AcBA | G4 G2 :|
% - - - - - - - - - - - - - - - - - - - - - - - - -
